dist/assets/img/corporulia/answerus/messages/message_2.svg

<svg width="547" height="261" viewBox="0 0 547 261" fill="none" xmlns="http://www.w3.org/2000/svg">
<g filter="url(#filter0_di_1445_48944)">
<path fill-rule="evenodd" clip-rule="evenodd" d="M129.586 37.6801C63.8277 43.9708 38.4546 72.5345 40.0724 118.939C40.6026 134.149 44.3984 145.854 50.9518 155.224C53.0079 158.163 53.3934 162.147 50.8148 164.641C49.1577 166.244 47.3115 167.711 45.2554 169.345C44.821 169.69 44.9632 170.369 45.5096 170.465C49.2425 171.118 53.2585 170.156 56.8879 168.571C59.5316 167.416 62.6328 167.622 64.9536 169.335C81.3181 181.418 104.894 188.642 133.139 196.862C191.016 213.705 262.072 209.359 322.895 205.318C331.164 204.768 339.469 204.351 347.738 203.935C401.599 201.228 453.95 198.597 485.184 160.059C508.032 131.866 514.412 89.977 497.216 65.8749C467.306 23.9525 399.615 26.7313 338.98 29.2203C325.103 29.79 311.596 30.3445 298.996 30.3445C229.184 30.3445 198.983 31.0413 129.586 37.6801Z" fill="white"/>
</g>
<defs>
<filter id="filter0_di_1445_48944" x="0" y="0" width="547" height="261" filterUnits="userSpaceOnUse" color-interpolation-filters="sRGB">
<feFlood flood-opacity="0" result="BackgroundImageFix"/>
<feColorMatrix in="SourceAlpha" type="matrix" values="0 0 0 0 0 0 0 0 0 0 0 0 0 0 0 0 0 0 127 0" result="hardAlpha"/>
<feOffset dy="12"/>
<feGaussianBlur stdDeviation="20"/>
<feComposite in2="hardAlpha" operator="out"/>
<feColorMatrix type="matrix" values="0 0 0 0 0.909804 0 0 0 0 0.313726 0 0 0 0 0.470588 0 0 0 1 0"/>
<feBlend mode="normal" in2="BackgroundImageFix" result="effect1_dropShadow_1445_48944"/>
<feBlend mode="normal" in="SourceGraphic" in2="effect1_dropShadow_1445_48944" result="shape"/>
<feColorMatrix in="SourceAlpha" type="matrix" values="0 0 0 0 0 0 0 0 0 0 0 0 0 0 0 0 0 0 127 0" result="hardAlpha"/>
<feOffset dy="-4"/>
<feGaussianBlur stdDeviation="4"/>
<feComposite in2="hardAlpha" operator="arithmetic" k2="-1" k3="1"/>
<feColorMatrix type="matrix" values="0 0 0 0 0.909804 0 0 0 0 0.313726 0 0 0 0 0.470588 0 0 0 0.16 0"/>
<feBlend mode="normal" in2="shape" result="effect2_innerShadow_1445_48944"/>
</filter>
</defs>
</svg>

<svg width="547" height="261" viewBox="0 0 547 261" fill="none" xmlns="http://www.w3.org/2000/svg"><g filter="url(#filter0_di_1445_48944)"><path fill-rule="evenodd" clip-rule="evenodd" d="M129.586 37.68c-65.758 6.29-91.131 34.854-89.514 81.259.53 15.21 4.326 26.915 10.88 36.285 2.056 2.939 2.441 6.923-.137 9.417-1.657 1.603-3.503 3.07-5.56 4.704-.434.345-.292 1.024.255 1.12 3.733.653 7.748-.309 11.378-1.894 2.644-1.155 5.745-.949 8.066.764 16.364 12.083 39.94 19.307 68.185 27.527 57.877 16.843 128.933 12.497 189.756 8.456 8.269-.55 16.574-.967 24.843-1.383 53.861-2.707 106.212-5.338 137.446-43.876 22.848-28.193 29.228-70.082 12.032-94.184-29.91-41.922-97.601-39.144-158.236-36.655-13.877.57-27.384 1.125-39.984 1.125-69.812 0-100.013.696-169.41 7.335z" fill="#fff"/></g><defs><filter id="filter0_di_1445_48944" x="0" y="0" width="547" height="261" filterUnits="userSpaceOnUse" color-interpolation-filters="sRGB"><feFlood flood-opacity="0" result="BackgroundImageFix"/><feColorMatrix in="SourceAlpha" values="0 0 0 0 0 0 0 0 0 0 0 0 0 0 0 0 0 0 127 0" result="hardAlpha"/><feOffset dy="12"/><feGaussianBlur stdDeviation="20"/><feComposite in2="hardAlpha" operator="out"/><feColorMatrix values="0 0 0 0 0.909804 0 0 0 0 0.313726 0 0 0 0 0.470588 0 0 0 1 0"/><feBlend in2="BackgroundImageFix" result="effect1_dropShadow_1445_48944"/><feBlend in="SourceGraphic" in2="effect1_dropShadow_1445_48944" result="shape"/><feColorMatrix in="SourceAlpha" values="0 0 0 0 0 0 0 0 0 0 0 0 0 0 0 0 0 0 127 0" result="hardAlpha"/><feOffset dy="-4"/><feGaussianBlur stdDeviation="4"/><feComposite in2="hardAlpha" operator="arithmetic" k2="-1" k3="1"/><feColorMatrix values="0 0 0 0 0.909804 0 0 0 0 0.313726 0 0 0 0 0.470588 0 0 0 0.16 0"/><feBlend in2="shape" result="effect2_innerShadow_1445_48944"/></filter></defs></svg>
